X:1
T:Title
%%score ( 1 2 ) { 3 | 4 }
L:1/8
Q:1/4=85
M:3/4
K:F
V:1 treble nm="Grand Piano, Soprano"
V:2 treble 
V:3 bass nm="Choir Pad, Peace, Be Still (James)"
V:4 bass 
V:1
 [A,C]>[A,C] [A,C]3 [A,F] | (3[F,A,][G,B,][A,C] [B,D]2 [A,C]2 | %2
w: By~Charles~Hutchinson~Gabriel * * *||
 [A,C]>[CF] [CE]2- (3[CE][B,D][K:bass][A,C] | (3[G,B,][A,C][B,D] [A,C]2 [F,A,]2 | %4
w: ||
 [F,A,]>[F,A,] [F,A,]3 [F,A,] | (3[F,=B,][G,C][B,D] [CE]2 [G,C]2 | z2 [G,D]4 | [G,=B,]2 [G,C]4 | %8
w: ||||
 [A,C]>[A,C] [G,B,]3 [F,A,] | (3[E,G,][F,A,][G,B,] [F,A,]2[K:treble] [A,C]2 | C>[CD] [CE]3 [CE] | %11
w: |||
 E2 z2 z2 | [CE]>[CE] [CF]3 [A,C] | (3[A,C][B,D][C_E] [CE]2 [B,D]2 | z2[K:bass] [A,C]4 | %15
w: ||||
[M:4/4] [B,C]2 [A,C]2- [A,C]/ z/ [A,C] [F,A,]>[G,B,] | [A,C]4- [A,C]>[A,F] [CE]>[B,D] | %17
w: ||
 [B,D]2 [A,C]4 z2 | z z/ [B,E]/ [B,E]>[B,E] [B,E]>[B,E] z2 | z2 [CF]>[CF] [CF]>[CF] [A,F]>[CE] | %20
w: |||
 [B,D]4- [B,D]>[B,D] (3[B,D][CE][DF] | [B,D]2 [A,C]4 C>[K:bass]A, | C6 z2 | C8- | C4 z4 |] %25
w: |||||
V:2
 x6 | x6 | x16/3[K:bass] x2/3 | x6 | x6 | x6 | x6 | x6 | x6 | x4[K:treble] x2 | x6 | %11
 (3=B,CD [CE]2 [CE]2 | x6 | x6 | x2[K:bass] x4 |[M:4/4] x8 | x8 | x8 | x8 | x8 | x8 | %21
 x15/2[K:bass] x/ | z2 G,>A, B,2 C>G, | z2 A,>B, A,4- | A,4 z4 |] %25
V:3
 F,>F, F,3 F, | (3:2:2C,2 C, F,2 F,2 | F,>F, G,2- (3:2:2G,2 G, | (3:2:2E,2 E, F,2 C,2 | %4
 F,>F, F,3 F, | (3D,E,G, G,2 E,2 | z2 F,4 | F,2 E,4 | F,>F, E,3 C, | (3:2:2C,2 E, F,2 F,2 | %10
 A,>A, A,3 A, | (3G,A,B, A,2 A,2 | B,>B, A,3 F, | F,2 F,2 F,2 | z2 F,4 |[M:4/4] E,2 .F,4 z2 | %16
 z z/ F,/ F,>F, F,2 z2 | z z/ F,/ F,>F, F,>F, (3F,G,A, | G,4- G,>G, (3G,F,G, | A,2 A,4 z2 | %20
 z2 F,>F, F,2 z2 | z z/ F,/ F,>F, F,>F, z2 | z2 E,>F, G,2 z2 | z2 F,>G, F,4- | F,4 z4 |] %25
V:4
 F,,>F,, F,,3 F,, | (3:2:2F,,2 F,, F,,2 F,,2 | F,,>A,, C,2- (3:2:2C,2 C, | (3:2:2C,2 C, F,,2 F,,2 | %4
 z2 D,3 D, | (3:2:2G,,2 G,, C,2 C,2 | z2 G,,4 | G,,2 C,4 | C,>C, C,4 | (3:2:2z2 C, z2 z2 | %10
 F,>F, E,3 E, | E,2 A,,2 A,,2 | G,,>C, F,,3 F,, | (3:2:2F,,2 A,, B,,2 B,,2 | z2 C,4 | %15
[M:4/4] C,2 .F,,4 z2 | z z/ F,,/ F,,>F,, F,,2 z2 | z z/ F,,/ F,,>F,, F,,>F,, (3A,,C,F, | %18
 C,4- C,>C, (3C,D,E, | F,2 F,4 z2 | z2 B,,>B,, B,,2 z2 | z z/ F,,/ F,,>F,, F,,>F,, z2 | %22
 z2 C,>C, C,2 z2 | z2 F,,>F,, F,,4- | F,,4 z4 |] %25

